obskkura/assets/sketchbook/experiment_2.svg

<svg viewBox="0 0 308 164" xmlns="http://www.w3.org/2000/svg"><g fill="#fff"><path d="m83.45 18 8.31 56.4-68.31-56.4h-16v3.8l84.31 12.2-84.31 112h16l68.31-94.08v56.48-56.48l-8.31 94.08h16l-7.69-112 7.69-12.2v-3.8z"/><path d="m298.55 20v124h-12v-112h-18.62l-.58 1-41.54 70-128.6-68.37 55.6-14.63h38.61l33.41 56.22 1.72 2.89 1.72-2.89 33.42-56.22zm-186.66 46.9 52.87 77.1h-11zm188.66-48.9h-40l-34 57.2-34-57.2h-40l-60.79 16 134.79 71.6 42.52-71.6h15.48v112h16zm-208.79 16 60.79 112h16z"/></g></svg>

<svg id="Ebene_1" data-name="Ebene 1" xmlns="http://www.w3.org/2000/svg" viewBox="0 0 308 164"><defs><style>.cls-1{fill:#fff;}</style></defs><polygon class="cls-1" points="83.45 18 91.76 74.4 23.45 18 7.45 18 7.45 21.8 91.76 34 7.45 146 23.45 146 91.76 51.92 91.76 108.4 91.76 51.92 83.45 146 99.45 146 91.76 34 99.45 21.8 99.45 18 83.45 18"/><path class="cls-1" d="M298.55,20V144h-12V32H267.93l-.58,1-41.54,70L97.21,34.63,152.81,20h38.61l33.41,56.22,1.72,2.89,1.72-2.89L261.69,20h36.86M111.89,66.9,164.76,144h-11L111.89,66.9M300.55,18h-40l-34,57.2-34-57.2h-40L91.76,34l134.79,71.6L269.07,34h15.48V146h16V18ZM91.76,34l60.79,112h16L91.76,34Z"/></svg>
